flaticon/interaction/archive-18.svg

<svg xmlns="http://www.w3.org/2000/svg" width="32" height="32" viewBox="0 0 24 24">
    <path d="M23.394531 22.917969L20.675781 20.199219 23.269531 18.902344 16.214844 16.300781 18.8125 23.359375 20.109375 20.765625 22.828125 23.484375C22.90625 23.5625 23.007812 23.601562 23.109375 23.601562 23.214844 23.601562 23.316406 23.5625 23.394531 23.484375 23.550781 23.328125 23.550781 23.074219 23.394531 22.917969zM17.5625 17.652344L21.257812 19.011719 19.703125 19.789062 18.925781 21.34375zM9.089844 7.199219L13.488281 7.199219C14.261719 7.199219 14.890625 6.570312 14.890625 5.796875L14.890625 5.199219C14.890625 4.980469 14.710938 4.800781 14.488281 4.800781 14.269531 4.800781 14.089844 4.980469 14.089844 5.199219L14.089844 5.796875C14.089844 6.128906 13.820312 6.398438 13.488281 6.398438L9.089844 6.398438C8.757812 6.398438 8.488281 6.128906 8.488281 5.796875L8.488281 5.199219C8.488281 4.980469 8.308594 4.800781 8.089844 4.800781 7.867188 4.800781 7.6875 4.980469 7.6875 5.199219L7.6875 5.796875C7.6875 6.570312 8.316406 7.199219 9.089844 7.199219zM8.089844 16.398438C7.867188 16.398438 7.6875 16.578125 7.6875 16.800781L7.6875 17.398438C7.6875 18.171875 8.316406 18.800781 9.089844 18.800781L12.089844 18.800781C12.308594 18.800781 12.488281 18.621094 12.488281 18.398438 12.488281 18.179688 12.308594 18 12.089844 18L9.089844 18C8.757812 18 8.488281 17.730469 8.488281 17.398438L8.488281 16.800781C8.488281 16.578125 8.308594 16.398438 8.089844 16.398438zM8.089844 16.398438"/>
    <path d="M 16.488281 23.199219 L 1.621094 23.199219 C 1.4375 23.199219 1.289062 23.050781 1.289062 22.867188 L 1.289062 12.398438 L 21.289062 12.398438 L 21.289062 16.398438 C 21.289062 16.621094 21.46875 16.800781 21.6875 16.800781 C 21.910156 16.800781 22.089844 16.621094 22.089844 16.398438 L 22.089844 1.132812 C 22.089844 0.507812 21.582031 0 20.957031 0 L 1.621094 0 C 0.996094 0 0.488281 0.507812 0.488281 1.132812 L 0.488281 22.867188 C 0.488281 23.492188 0.996094 24 1.621094 24 L 16.488281 24 C 16.710938 24 16.890625 23.820312 16.890625 23.601562 C 16.890625 23.378906 16.710938 23.199219 16.488281 23.199219 Z M 1.621094 0.800781 L 20.957031 0.800781 C 21.140625 0.800781 21.289062 0.949219 21.289062 1.132812 L 21.289062 11.601562 L 1.289062 11.601562 L 1.289062 1.132812 C 1.289062 0.949219 1.4375 0.800781 1.621094 0.800781 Z M 1.621094 0.800781"/>
</svg>

<svg xmlns="http://www.w3.org/2000/svg" width="32" height="32" viewBox="0 0 24 24">
    <path d="M23.395 22.918l-2.72-2.719 2.595-1.297-7.055-2.601 2.598 7.058 1.296-2.593 2.72 2.718a.399.399 0 0 0 .566 0 .4.4 0 0 0 0-.566zm-5.832-5.266l3.695 1.36-1.555.777-.777 1.555zm0 0M9.09 7.2h4.398c.774 0 1.403-.63 1.403-1.403v-.598a.401.401 0 0 0-.801 0v.598c0 .332-.27.601-.602.601H9.09a.602.602 0 0 1-.602-.601v-.598a.4.4 0 0 0-.8 0v.598c0 .773.628 1.402 1.402 1.402zm0 0M8.09 16.398a.402.402 0 0 0-.402.403v.597c0 .774.628 1.403 1.402 1.403h3a.401.401 0 0 0 0-.801h-3a.602.602 0 0 1-.602-.602v-.597a.401.401 0 0 0-.398-.403zm0 0"/>
    <path d="M16.488 23.2H1.621a.332.332 0 0 1-.332-.333V12.398h20v4a.401.401 0 1 0 .8 0V1.133C22.09.508 21.583 0 20.958 0H1.621C.996 0 .488.508.488 1.133v21.734C.488 23.492.996 24 1.621 24h14.867a.401.401 0 1 0 0-.8zM1.621.8h19.336c.184 0 .332.15.332.333v10.469h-20V1.132c0-.183.149-.331.332-.331zm0 0"/>
</svg>
